outputs/icons/action/verified_sharp.svg

<svg xmlns="http://www.w3.org/2000/svg" width="1200" height="1200" fill="none"><g clip-path="url(#a)"><path fill="#000" d="m1150 600-122-139.5 17-184.5-180.5-41L770 75l-170 73-170-73-94.5 159.5L155 275l17 185L50 600l122 139.5-17 185 180.5 41L430 1125l170-73.5 170 73L864.5 965l180.5-41-17-184.5zM504.5 836l-190-190.5 74-74 116 116.5L797 394.5l74 74z"/></g><defs><clipPath id="a"><path fill="#fff" d="M0 0h1200v1200H0z"/></clipPath></defs></svg>

<svg width="1200" height="1200" viewBox="0 0 1200 1200" fill="none" xmlns="http://www.w3.org/2000/svg"><g clip-path="url(#clip0_117_771)"><path d="M1150 600L1028 460.5L1045 276L864.5 235L770 75L600 148L430 75L335.5 234.5L155 275L172 460L50 600L172 739.5L155 924.5L335.5 965.5L430 1125L600 1051.5L770 1124.5L864.5 965L1045 924L1028 739.5L1150 600ZM504.5 836L314.5 645.5L388.5 571.5L504.5 688L797 394.5L871 468.5L504.5 836Z" fill="black"/></g><defs><clipPath id="clip0_117_771"><path width="24" fill="white" d="M0 0H1200V1200H0V0z"/></clipPath></defs></svg>
